!!!COM: Britten, (Edward) Benjamin
!!!OTL: [T801_Bri-w2p16h29m1-8]
**kern	**dynam	**kern	**dynam	**kern	**dynam	**kern	**dynam
*grp:A	*grp:A	*grp:A	*grp:A	*grp:A	*grp:A	*grp:B	*grp:B
*part4	*part4	*part3	*part3	*part2	*part2	*part1	*part1
*staff4	*	*staff3	*	*staff2	*	*staff1	*
*I"Violoncello	*	*I"Viola	*	*I"Violin I	*	*I"Oboe	*
*I'Vc.	*	*I'Vla.	*	*I'Vln. I	*	*I'Ob.	*
!!pagebreak:original
*clefF4	*	*clefC3	*	*clefG2	*	*clefG2	*
*k[]	*	*k[]	*	*k[]	*	*k[]	*
*C:	*	*C:	*	*C:	*	*C:	*
*M3/4	*	*M3/4	*	*M3/4	*	*M3/4	*
!!LO:REH:t=29
=1	=1	=1	=1	=1	=1	=1	=1
!	!	!	!	!	!	!LO:TX:t=[quarter]=61	!
!	!	!	!LO:DY:t=%s sub.	!	!	!LO:TX:a:B:t=Poco a poco accel. e più agitato	!
4r	.	[2.coX [2.goX	pp	12bL]	ppp	(2ggn^	f
.	.	.	.	(12b	.	.	.
.	.	.	.	12a#XJ)	.	.	.
8r	.	.	.	(12g#XL	.	.	.
.	.	.	.	12b	.	.	.
!LO:TX:a:t=pizz.	!LO:DY:t=%s un poco marc.	!	!	!	!	!	!
8BB	pp	.	.	.	.	.	.
.	.	.	.	12a#J)	.	.	.
4EE~	.	.	.	(12g#L	.	[4cc	>
.	.	.	.	12b	.	.	.
.	.	.	.	12a#J)	.	.	.
=2	=2	=2	=2	=2	=2	=2	=2
4DD#X^ 4AA#X	.	2.c] 2.g]	.	(12g#XL	.	4cc_	.
.	.	.	.	12b	.	.	.
.	.	.	.	12a#XJ)	.	.	.
4EE~ 4BB	.	.	.	(12g#L	.	8cc])	.
.	.	.	.	12b	.	.	.
.	.	.	.	.	.	8r	]
.	.	.	.	12a#J)	.	.	.
8r	.	.	.	(12bL	<	4r	.
.	.	.	.	12cc#X	.	.	.
8BB	.	.	.	.	.	.	.
.	.	.	.	12eeJ)	[	.	.
=3	=3	=3	=3	=3	=3	=3	=3
4EE~	.	[2.C [2.G	pp	(12G#XL	ppp	4r	.
.	.	.	.	12B	.	.	.
.	.	.	.	12A#XJ)	.	.	.
4FF#X^ 4C#X	.	.	.	(12G#L	.	16r	.
.	.	.	.	.	.	(>16c	pp
.	.	.	.	12B	.	.	.
.	.	.	.	.	.	[4.g	.
.	.	.	.	12A#J)	.	.	.
4EE~ 4BB	.	.	.	(12G#L	.	.	.
.	.	.	.	12B	.	.	.
.	.	.	.	12A#J)	.	.	.
!!linebreak:original
=4	=4	=4	=4	=4	=4	=4	=4
8r	.	2.C_ 2.G_	.	(12G#XL	.	8g])	.
.	.	.	.	12B	.	.	.
8BB	.	.	.	.	.	(4g	.
.	.	.	.	12A#XJ)	.	.	.
4EE~	.	.	.	(12G#L	.	.	.
.	.	.	.	12B	.	.	.
.	.	.	.	.	.	8a	.
.	.	.	.	12A#J)	.	.	.
4DD#X^ 4AA#X	.	.	.	(12G#L	.	20eLL	<
.	.	.	.	.	.	20g	.
.	.	.	.	12B	.	.	.
.	.	.	.	.	.	20f	.
.	.	.	.	.	.	20e	.
.	.	.	.	12A#J)	.	.	.
.	.	.	.	.	.	20dJJ	.
=5	=5	=5	=5	=5	=5	=5	=5
4EE~ 4BB	.	2.C_ 2.G_	.	(12G#XL	.	4g)	[
.	.	.	.	12B	.	.	.
.	.	.	.	12A#XJ)	.	.	.
.	.	.	.	.	.	(16qqg/LL	.
.	.	.	.	.	.	16qqa/JJ	.
!	!	!	!	!	!	!	!LO:DY:t=più %s
8r	.	.	.	(12G#L	.	[2g~	f
.	.	.	.	12B	.	.	.
8BB	.	.	.	.	.	.	.
.	.	.	.	12A#J)	.	.	.
4EE~	.	.	.	(12G#L	.	.	.
.	.	.	.	12B	.	.	.
.	.	.	.	12A#J)	.	.	.
=6	=6	=6	=6	=6	=6	=6	=6
4FF#X^ 4C#X	.	2.C_ 2.G_	.	(12G#XL	.	8gL]	<
.	.	.	.	12B	.	.	.
.	.	.	.	.	.	8aJ	.
.	.	.	.	12A#XJ)	.	.	.
4EE~ 4BB	.	.	.	(12G#L	.	12eL	[
.	.	.	.	12B	.	12d	.
.	.	.	.	12A#J)	.	12eJ	.
!	!	!	!	!	!	!LO:TX:a:t=(ten.)	!
8r	.	.	.	(12G#L	.	16gLL	>
.	.	.	.	.	.	16f	.
.	.	.	.	12B	.	.	.
8BB	.	.	.	.	.	16e	.
.	.	.	.	12A#J)	.	.	.
.	.	.	.	.	.	16dJJ	.
=7	=7	=7	=7	=7	=7	=7	=7
4EE~	.	2.C_ 2.G_	.	(12G#XL	.	2g)	]
.	.	.	.	12B	.	.	.
.	.	.	.	12A#XJ)	.	.	.
4DD#X^ 4AA#X	.	.	.	(12G#L	.	.	.
.	.	.	.	12B	.	.	.
.	.	.	.	12A#J)	.	.	.
.	.	.	.	.	.	(16qqa/LL	.
.	.	.	.	.	.	16qqf#X/JJ	.
4EE~ 4BB	.	.	.	(12G#L	.	[4g^	.
.	.	.	.	12B	.	.	.
.	.	.	.	12A#J)	.	.	.
=8	=8	=8	=8	=8	=8	=8	=8
8r	.	2.C_ 2.G_	.	(12G#XL	.	4g])	.
.	.	.	.	12B	.	.	.
8BB	.	.	.	.	.	.	.
.	.	.	.	12A#XJ)	.	.	.
4EE~	.	.	.	(12G#L	.	8r	.
.	.	.	.	12B	.	.	.
.	.	.	.	.	.	(4g	p
.	.	.	.	12A#J)	.	.	.
4FF#X^ 4C#X	.	.	.	(12G#L	.	.	.
.	.	.	.	12B	.	.	.
.	.	.	.	.	.	[8a)	.
.	.	.	.	12A#J)	.	.	.
=	=	=	=	=	=	=	=
*-	*-	*-	*-	*-	*-	*-	*-
!!!system-decoration: s1[(s2,s3,s4)]
!!!RDF**kern: > = above
!!!RDF**kern: < = below
